X:1
T:Charakteristischer Name: Menuett à quatre; Menuet de la chaine
T:Charakteristischer Name: Menuett à quatre; Menuet de la chaine
T:[ID 1-65] Menuet Laschene oder Cater In dieser Quelle auch als: Men\"uet Laschenn; Men\"uet; Men\"uet de Cather In anderer Quelle: Menuet \'a quater - J. de Gr\'uytters 1746 (Hinw. Th. Behr); Menuet de France - R. Storm  um 1760 (Hinw. Th. Behr); Menuet De la Chaine - J. G. Wandembrile 1778 (Hinw. Th. Behr); Menuet a 4 de dammes au Enchaine - F. de Prins 1781 (Hinw. Th. Behr) \"Ahnlich in dieser Quelle: ID 2-7a (anm. S. Wascher);
T:Urheber unbekannt Erstbeleg: 1746 (Datum in der Quelle) Datum in der hier transkribierten Quelle: 1792
C:Urheber unbekannt
C:Erstbeleg: 1746 (Datum in der Quelle)
C:Datum in der hier transkribierten Quelle: 1792
L:1/8
M:3/4
K:C
V:1 treble 
V:1
 d^cdefg | a3 g a2 | _b2 a2 g2 | a"^1)"bagfe | d^cdefg | a3 g a2 | _b2 bagf | e6 :: ag a2 _ba | %9
 g2 gfef | gfgeag | f4 e2 | d^cdefg | e"^2)"defge | a2"^2)" _b2 ag/f/ | e4 d2 | ag a2 _ba | %17
 g2 gfef | gfgeag | f4 e2 | d^cdefg | edefge | fga"^2)"ef^c | d6 :| %24

